X:151
T:Bona Roba. JJo8.151, The
B:J.Johnson Choice Collection Vol 8 1758
Z:vmp.Simon Wilson 2013 www.village-music-project.org.uk
M:6/8
L:1/8
Q:3/8=110
K:F
|:CFAc2A|CEGB2A|CFAc2A|GECC3|CFAc2A|G=Bdf2g|edc fed|.c-.c-.cc3:|
|:cegb2g|fdfa2g|eag fed|eA^cd2e|faf cAF|CEGB2c|AGF BAG|.F-.F-.FF3:|

